!!!COM: Palestrina, Giovanni Perluigi da
!!!OPR: Confitebor tibi
!!!OTL: Gloria
**kern	**kern	**kern	**kern	**kern	**kern	**kern	**kern
*Ibass	*Itenor	*Icalto	*Icant	*Ibass	*Itenor	*Icalto	*Icant
!Bassus	!Tenor	!Altus	!Cantus	!Bassus	!Tenor	!Altus	!Cantus
*clefF4	*clefGv2	*clefG2	*clefG2	*clefF4	*clefGv2	*clefG2	*clefG2
*k[b-]	*k[b-]	*k[b-]	*k[b-]	*k[b-]	*k[b-]	*k[b-]	*k[b-]
*G:dor	*G:dor	*G:dor	*G:dor	*G:dor	*G:dor	*G:dor	*G:dor
*M4/2	*M4/2	*M4/2	*M4/2	*M4/2	*M4/2	*M4/2	*M4/2
=1	=1	=1	=1	=1	=1	=1	=1
0r	0r	0r	0r	1r	1r	0r	1.g
.	.	.	.	[1G	[1d	.	.
.	.	.	.	.	.	.	2g
=2	=2	=2	=2	=2	=2	=2	=2
0r	0r	0r	0r	2G]	2d]	1.g	1b-
.	.	.	.	2G	2d	.	.
.	.	.	.	1c	1e	.	1cc
.	.	.	.	.	.	2g	.
=3	=3	=3	=3	=3	=3	=3	=3
0r	0r	0r	0r	1B-	1f	1b-	2.dd
.	.	.	.	.	.	.	4cc
.	.	.	.	4G	1g	1b-	4b-
.	.	.	.	4A	.	.	4cc
.	.	.	.	4B-	.	.	4dd
.	.	.	.	4c	.	.	4ee
=4	=4	=4	=4	=4	=4	=4	=4
0r	0r	0r	0r	1.d	2f	2a	1.ff
.	.	.	.	.	4d	4f	.
.	.	.	.	.	4e	4g	.
.	.	.	.	.	4f	4a	.
.	.	.	.	.	4g	4b-	.
.	.	.	.	2A	[2a	2cc	2ee
=5	=5	=5	=5	=5	=5	=5	=5
0r	0r	0r	0r	2B-	4a]	2.b-	1dd
.	.	.	.	.	4g	.	.
.	.	.	.	2G	1g	.	.
.	.	.	.	.	.	8a	.
.	.	.	.	.	.	8g	.
.	.	.	.	1d	.	2a	1dd
.	.	.	.	.	2f#	2a	.
=6	=6	=6	=6	=6	=6	=6	=6
1.G	1r	1.b-	0r	2.G	2g	2.g	[0dd
.	.	.	.	.	2.G	.	.
.	.	.	.	4A	.	8f	.
.	.	.	.	.	.	8e	.
.	[1d	.	.	4B-	.	2.d	.
.	.	.	.	4c	4A	.	.
2G	.	2b-	.	2d	4B-	.	.
.	.	.	.	.	4c	4e	.
=7	=7	=7	=7	=7	=7	=7	=7
2F	2d]	2a	1r	1D	1d	1f	1dd]
2D	2d	2f	.	.	.	.	.
[1E-	2c	1g	[1gg	1r	1r	1r	1r
.	2B-	.	.	.	.	.	.
=8	=8	=8	=8	=8	=8	=8	=8
1E-]	1c	2.g	2gg]	1r	1r	0r	1r
.	.	.	2gg	.	.	.	.
.	.	4a	.	.	.	.	.
[1D	1d	2b-	2ff	2r	2r	.	2r
.	.	4a	2dd	[2d	[2f	.	[2dd
.	.	4g	.	.	.	.	.
=9	=9	=9	=9	=9	=9	=9	=9
1D]	0A	4f	1ff	2d]	2f]	1.a	2dd]
.	.	4e	.	.	.	.	.
.	.	4f	.	2d	2d	.	2a
.	.	4g	.	.	.	.	.
1A	.	1a	1ee	2c	2e	.	2cc
.	.	.	.	2A	2e	2a	2cc
=10	=10	=10	=10	=10	=10	=10	=10
0r	0r	0r	0r	0B-	0d	2g	0dd
.	.	.	.	.	.	2f	.
.	.	.	.	.	.	1g	.
=11	=11	=11	=11	=11	=11	=11	=11
1r	1r	1r	1r	1A	1e	1a	1cc#
1G	1d	1b-	1gg	1r	1r	1r	1r
=12	=12	=12	=12	=12	=12	=12	=12
1D	1d	1a	1ff#	0r	0r	0r	0r
1G	1d	1b	1gg	.	.	.	.
=13	=13	=13	=13	=13	=13	=13	=13
0C	0g	0cc	0ee	2r	2r	2r	2r
.	.	.	.	1c	1e	1g	1cc
.	.	.	.	2c	2e	2g	2cc
=14	=14	=14	=14	=14	=14	=14	=14
0r	0r	0r	0r	2.G	2.d	2.g	2.b
.	.	.	.	4G	4d	4g	4b
.	.	.	.	1c	1e	1g	1cc
=15	=15	=15	=15	=15	=15	=15	=15
2r	2r	2r	2r	0F	0f	0cc	0a
1F	1c	1a	1ff	.	.	.	.
2F	2c	2a	2ff	.	.	.	.
=16	=16	=16	=16	=16	=16	=16	=16
1C	1c	1g	1ee	0r	0r	0r	0r
1F	1c	1a	1ff	.	.	.	.
=17	=17	=17	=17	=17	=17	=17	=17
0BB-	0f	0b-	0dd	2r	2r	2r	2r
.	.	.	.	2B-	2d	2f	2b-
.	.	.	.	2B-	2d	2f	2b-
.	.	.	.	2B-	2d	2b-	[2dd
=18	=18	=18	=18	=18	=18	=18	=18
0r	0r	0r	0r	2F	4f	2a	2dd]
.	.	.	.	.	4e	.	.
.	.	.	.	2A	4d	2f	1cc
.	.	.	.	.	4c	.	.
.	.	.	.	1G	2d	[1g	.
.	.	.	.	.	2d	.	2b
=19	=19	=19	=19	=19	=19	=19	=19
1.C	2r	2r	2r	2r	2c	1g]	2cc
.	1e	1cc	1gg	1c	1g	.	1ee
.	.	.	.	.	.	2r	.
2C	2e	2cc	2gg	2c	2g	[2cc	2ee
=20	=20	=20	=20	=20	=20	=20	=20
1C	1g	1cc	4gg	2.c	1e	2cc]	1ee
.	.	.	4ff	.	.	.	.
.	.	.	4ee	.	.	2cc	.
.	.	.	4dd	4B-	.	.	.
[1F	2r	2r	2cc	4A	1a	1cc	[1ff
.	.	.	.	4G	.	.	.
.	[2f	[2a	[2cc	2F	.	.	.
=21	=21	=21	=21	=21	=21	=21	=21
2F]	2f]	2a]	2cc]	2r	2f	1.a	2ff]
2F	2f	2a	2cc	1F	1c	.	2ff
1F	1c	1f	1cc	.	.	.	1ff
.	.	.	.	2F	[2f	2a	.
=22	=22	=22	=22	=22	=22	=22	=22
0D	1.f	0a	2.dd	2F	4f]	2a	2.ff
.	.	.	.	.	4g	.	.
.	.	.	.	2D	1a	2.f	.
.	.	.	4ee	.	.	.	4ee
.	.	.	1ff	4D	.	.	1dd
.	.	.	.	4E	.	4g	.
.	2d	.	.	4F	[2A	[2a	.
.	.	.	.	4G	.	.	.
=23	=23	=23	=23	=23	=23	=23	=23
1AA	2r	1a	1ee	2A	4A]	2a]	1cc#
.	.	.	.	.	4B	.	.
.	2e	.	.	1A	4c#	2e	.
.	.	.	.	.	4d	.	.
1r	2e	1A	1cc#	.	2e	2.a	2r
.	[2a	.	.	2A	2e	.	[2a
.	.	.	.	.	.	4g	.
=24	=24	=24	=24	=24	=24	=24	=24
1.D	4a]	2A	1dd	1d	1f	4f	2a]
.	4g	.	.	.	.	4e	.
.	4f	2.a	.	.	.	1d	2a
.	4e	.	.	.	.	.	.
.	2.d	.	1ff	1d	1a	.	1dd
.	.	4g	.	.	.	.	.
2D	.	4f	.	.	.	2a	.
.	4c	4e	.	.	.	.	.
=25	=25	=25	=25	=25	=25	=25	=25
1G	1B-	1d	0gg	2r	2g	1b-	2dd
.	.	.	.	1B-	2.G	.	1dd
1G	2G	[1B-	.	.	.	2b-	.
.	.	.	.	.	4A	.	.
.	[2d	.	.	2G	[2B-	[2b-	2dd
=26	=26	=26	=26	=26	=26	=26	=26
2r	2d]	1B-]	2r	0G	4B-]	2b-]	0b-
.	.	.	.	.	4c	.	.
1B-	2d	.	1dd	.	1d	2g	.
.	[1B-	2r	.	.	.	[1g	.
2G	.	[2b-	2dd	.	2d	.	.
=27	=27	=27	=27	=27	=27	=27	=27
1G	1B-]	2b-]	2b-	2.B-	0d	2g]	2.dd
.	.	2g	2.dd	.	.	2.b-	.
.	.	.	.	4A	.	.	4cc
2.B-	2.d	2g	.	2.G	.	.	2.b-
.	.	.	4cc	.	.	4a	.
.	.	[2b-	[2b-	.	.	[2g	.
4A	4c	.	.	4A	.	.	4cc
=28	=28	=28	=28	=28	=28	=28	=28
1G	1B-	4b-]	4b-]	2.B-	0d	4g]	0dd
.	.	4a	4cc	.	.	4a	.
.	.	1g	2.dd	.	.	2b-	.
.	.	.	.	4G	.	.	.
1D	1A	.	.	1d	.	2a	.
.	.	.	4cc	.	.	.	.
.	.	2f#	2a	.	.	2d	.
=29	=29	=29	=29	=29	=29	=29	=29
0G	0G	0g	0b	1G	1B	2r	1dd
.	.	.	.	.	.	2.d	.
.	.	.	.	2r	2r	.	2r
.	.	.	.	.	.	4d	.
.	.	.	.	[2G	[2d	2d	[2b
=30	=30	=30	=30	=30	=30	=30	=30
0r	0r	0r	0r	4G]	4d]	0g	4b]
.	.	.	.	4G	4d	.	4b
.	.	.	.	2G	2d	.	2b
.	.	.	.	1c	1e	.	1cc
=31	=31	=31	=31	=31	=31	=31	=31
0r	0r	0r	0r	1A	1e	2a	1.cc
.	.	.	.	.	.	2a	.
.	.	.	.	2r	[1f	2a	.
.	.	.	.	[2F	.	[2cc	[2a
=32	=32	=32	=32	=32	=32	=32	=32
0r	0r	0r	0r	2F]	2f]	4cc]	2a]
.	.	.	.	.	.	4b-	.
.	.	.	.	2F	2f	4a	2cc
.	.	.	.	.	.	4g	.
.	.	.	.	1B-	1d	2f	1dd
.	.	.	.	.	.	2g	.
=33	=33	=33	=33	=33	=33	=33	=33
2r	2r	2r	2r	1A	1e	1a	1cc#
1A	1e	1a	1cc#	.	.	.	.
.	.	.	.	1r	1r	1r	1r
2A	2e	2a	2cc#	.	.	.	.
=34	=34	=34	=34	=34	=34	=34	=34
1d	0f#	1a	1dd	2r	2r	1r	2r
.	.	.	.	1D	1d	.	2a
1d	.	1a	1dd	.	.	2r	2a
.	.	.	.	2D	2d	2d	[2dd
=35	=35	=35	=35	=35	=35	=35	=35
2r	1g	1b-	2r	1G	2.B-	2d	4dd]
.	.	.	.	.	.	.	4cc
2G	.	.	2dd	.	.	1g	1b-
.	.	.	.	.	4c	.	.
2G	1d	2g	1dd	1G	2d	.	.
2B-	.	2g	.	.	2B-	2d	2g
=36	=36	=36	=36	=36	=36	=36	=36
4A	2e	[0a	2cc	0r	0r	0r	0r
4G	.	.	.	.	.	.	.
4F	2A	.	2.ff	.	.	.	.
4E	.	.	.	.	.	.	.
1D	4d	.	.	.	.	.	.
.	4e	.	4ee	.	.	.	.
.	4f	.	[2dd	.	.	.	.
.	4d	.	.	.	.	.	.
=37	=37	=37	=37	=37	=37	=37	=37
1A	1e	1a]	2dd]	2r	2r	2r	2r
.	.	.	2cc#	2.A	2A	2.e	2.a
1r	1r	1r	1r	.	2c#	.	.
.	.	.	.	4A	.	4e	4a
.	.	.	.	2A	2c#	2e	2a
=38	=38	=38	=38	=38	=38	=38	=38
2r	2r	1r	2r	1D	1d	2.f#	1a
2.d	2d	.	2.a	.	.	.	.
.	.	.	.	.	.	4g	.
.	2f#	2r	.	1D	1A	2a	1dd
4d	.	.	4a	.	.	.	.
2d	2f#	[2d	2a	.	.	2d	.
=39	=39	=39	=39	=39	=39	=39	=39
1G	1g	4d]	1b	0r	0r	0r	0r
.	.	4d	.	.	.	.	.
.	.	2d	.	.	.	.	.
1G	1d	2g	1b	.	.	.	.
.	.	2g	.	.	.	.	.
=40	=40	=40	=40	=40	=40	=40	=40
1c	1e	2g	1cc	0r	0r	0r	0r
.	.	2a	.	.	.	.	.
1B-	1f	[1b-	1dd	.	.	.	.
=41	=41	=41	=41	=41	=41	=41	=41
1E-	2g	1b-]	1ee-	0r	0r	0r	0r
.	2g	.	.	.	.	.	.
1F	2.f	1a	2dd	.	.	.	.
.	.	.	[2cc	.	.	.	.
.	4e-	.	.	.	.	.	.
=42	=42	=42	=42	=42	=42	=42	=42
0G	0d	0g	2cc]	1r	0r	1r	1r
.	.	.	4b	.	.	.	.
.	.	.	4a	.	.	.	.
.	.	.	[1b	[1G	.	[1g	[1dd
=43	=43	=43	=43	=43	=43	=43	=43
1r	0G	1r	1b]	1G]	1.g	2g]	1dd]
.	.	.	.	.	.	2f	.
[1C	.	[1g	2.cc	[1c	.	2e	2.ee
.	.	.	.	.	2f	2d	.
.	.	.	4dd	.	.	.	4ff
=44	=44	=44	=44	=44	=44	=44	=44
1C]	1.c	1g]	1ee	2c]	2e	0c	2gg
.	.	.	.	2B-	2d	.	2g
[1F	.	2.f	1ff	2A	[1c	.	2a
.	2B-	.	.	2G	.	.	2b-
.	.	4g	.	.	.	.	.
=45	=45	=45	=45	=45	=45	=45	=45
2F]	2A	0a	1.ff	0F	1c]	[0f	1cc
2E	2G	.	.	.	.	.	.
2D	[1F	.	.	.	[1d	.	[1ff
2C	.	.	2ee	.	.	.	.
=46	=46	=46	=46	=46	=46	=46	=46
0BB-	1F]	1b-	2.dd	0B-	2d]	0f]	2ff]
.	.	.	.	.	2c	.	2ee
.	.	.	4ee	.	.	.	.
.	1B-	2.f	1ff	.	1B-	.	1dd
.	.	4g	.	.	.	.	.
=47	=47	=47	=47	=47	=47	=47	=47
0F	0c	0a	0ff	1F	1A	0f	2cc
.	.	.	.	.	.	.	2.a
.	.	.	.	2r	2r	.	.
.	.	.	.	.	.	.	4a
.	.	.	.	[2A	[2c	.	2a
=48	=48	=48	=48	=48	=48	=48	=48
0r	0r	0r	0r	4A]	4c]	2r	1cc
.	.	.	.	4A	4c	.	.
.	.	.	.	2A	1c	2.e	.
.	.	.	.	1c	.	.	2.g
.	.	.	.	.	.	4e	.
.	.	.	.	.	[2g	2e	.
.	.	.	.	.	.	.	4a
=49	=49	=49	=49	=49	=49	=49	=49
0r	0r	0r	0r	2.G	2g]	1g	4b-
.	.	.	.	.	.	.	4a
.	.	.	.	.	2.d	.	4b-
.	.	.	.	4A	.	.	4cc
.	.	.	.	4B-	.	2.d	[1dd
.	.	.	.	4c	4e	.	.
.	.	.	.	2d	4f	.	.
.	.	.	.	.	4g	4e	.
=50	=50	=50	=50	=50	=50	=50	=50
0r	0r	0r	0r	2.D	4a	4f	2dd]
.	.	.	.	.	4g	4g	.
.	.	.	.	.	4f	1a	1ff
.	.	.	.	4E	4e	.	.
.	.	.	.	4F	2d	.	.
.	.	.	.	4G	.	.	.
.	.	.	.	4A	4c	[2cc	4ee
.	.	.	.	4B-	4B-	.	4dd
=51	=51	=51	=51	=51	=51	=51	=51
0r	0r	0r	0r	2c	2A	2cc]	2ee
.	.	.	.	2d	2a	4b-	2ff
.	.	.	.	.	.	4a	.
.	.	.	.	1G	4g	2b-	2dd
.	.	.	.	.	4f	.	.
.	.	.	.	.	4e	2b-	[2ee
.	.	.	.	.	4d	.	.
=52	=52	=52	=52	=52	=52	=52	=52
0r	0r	1r	2r	0A	2c	0a	2ee]
.	.	.	2.a	.	2f	.	1dd
.	.	2r	.	.	1e	.	.
.	.	.	4a	.	.	.	.
.	.	[2a	2a	.	.	.	2cc#
=53	=53	=53	=53	=53	=53	=53	=53
2r	2.d	4a]	1f	0D	0d	0a	0dd
.	.	4a	.	.	.	.	.
2.D	.	2a	.	.	.	.	.
.	4d	.	.	.	.	.	.
.	2d	1f	2d	.	.	.	.
4D	.	.	.	.	.	.	.
2D	[2f	.	[2a	.	.	.	.
=54	=54	=54	=54	=54	=54	=54	=54
1F	2f]	2.c	4a]	0r	0r	0r	0r
.	.	.	4a	.	.	.	.
.	2.c	.	2a	.	.	.	.
.	.	4d	.	.	.	.	.
2.C	.	4e	1cc	.	.	.	.
.	4d	4f	.	.	.	.	.
.	4e	[2g	.	.	.	.	.
4D	4f	.	.	.	.	.	.
=55	=55	=55	=55	=55	=55	=55	=55
4E	2g	4g]	2.g	0r	0r	0r	2r
4F	.	4a	.	.	.	.	.
1G	2.d	1b-	.	.	.	.	2.dd
.	.	.	4a	.	.	.	.
.	.	.	4b-	.	.	.	.
.	4e	.	4cc	.	.	.	4dd
4F	[2f	4a	[2dd	.	.	.	2dd
4E	.	4g	.	.	.	.	.
=56	=56	=56	=56	=56	=56	=56	=56
1D	2f]	1f	2dd]	2r	2r	2.a	1.ff
.	4e	.	4cc	2.F	2.a	.	.
.	4d	.	4b-	.	.	4a	.
2r	1c	2r	1a	.	.	2a	.
.	.	.	.	4F	4a	.	.
[2A	.	[2a	.	2A	2a	[2cc	4ee
.	.	.	.	.	.	.	4dd
=57	=57	=57	=57	=57	=57	=57	=57
4A]	2.e	4a]	2r	1c	4A	2cc]	1cc
4A	.	4a	.	.	4B-	.	.
2A	.	2a	2.ee	.	4c	1c	.
.	4e	.	.	.	4d	.	.
1c	2e	1g	.	1C	2.e	.	1cc
.	.	.	4ee	.	.	.	.
.	[2g	.	2ee	.	.	[2g	.
.	.	.	.	.	4d	.	.
=58	=58	=58	=58	=58	=58	=58	=58
1C	2g]	1e	2.gg	2r	4e	4g]	2r
.	.	.	.	.	4f	4g	.
.	4G	.	.	2c	2g	2c	2.g
.	4A	.	8ff	.	.	.	.
.	.	.	8ee	.	.	.	.
1G	4B-	2.g	[1dd	2B-	2G	2.d	.
.	4c	.	.	.	.	.	4g
.	2d	.	.	2G	[2d	.	2b-
.	.	4g	.	.	.	4e	.
=59	=59	=59	=59	=59	=59	=59	=59
2F	[0A	1a	1dd]	1d	4d]	4f	2a
.	.	.	.	.	4d	4g	.
2D	.	.	.	.	2f	2.a	2dd
1A	.	1a	1ee	1A	1e	.	4cc#
.	.	.	.	.	.	4g	4b
.	.	.	.	.	.	2a	2cc#
=60	=60	=60	=60	=60	=60	=60	=60
[0D	1A]	[0a	[0ff#	1d	1.d	[0f#	[0dd
.	1d	.	.	1D	.	.	.
.	.	.	.	.	4c	.	.
.	.	.	.	.	4B-	.	.
=61	=61	=61	=61	=61	=61	=61	=61
0D]	0d	0a]	0ff#]	0D	0A	0f#]	0dd]
!! Qui tollis
*Ibass	*Itenor	*Icalto	*Icant	*Ibass	*Itenor	*Icalto	*Icant
!Bassus	!Tenor	!Altus	!Cantus	!Bassus	!Tenor	!Altus	!Cantus
*clefF4	*clefGv2	*clefG2	*clefG2	*clefF4	*clefGv2	*clefG2	*clefG2
*k[b-]	*k[b-]	*k[b-]	*k[b-]	*k[b-]	*k[b-]	*k[b-]	*k[b-]
*G:dor	*G:dor	*G:dor	*G:dor	*G:dor	*G:dor	*G:dor	*G:dor
*M4/2	*M4/2	*M4/2	*M4/2	*M4/2	*M4/2	*M4/2	*M4/2
=62	=62	=62	=62	=62	=62	=62	=62
0r	0r	0d	0r	0r	0r	0r	0r
=63	=63	=63	=63	=63	=63	=63	=63
1r	0r	1.f	0a	0r	0r	0r	0r
[1A	.	.	.	.	.	.	.
.	.	2e	.	.	.	.	.
=64	=64	=64	=64	=64	=64	=64	=64
1A]	0e	1a	1cc	0r	0r	0r	0r
1c	.	2.g	[1cc	.	.	.	.
.	.	4f	.	.	.	.	.
=65	=65	=65	=65	=65	=65	=65	=65
1c	1g	1e	2cc]	0r	0r	0r	0r
.	.	.	2g	.	.	.	.
1G	1g	2d	2b-	.	.	.	.
.	.	[2g	2b-	.	.	.	.
=66	=66	=66	=66	=66	=66	=66	=66
2B-	1d	2g]	2.b-	0r	0r	0r	0r
2B-	.	4f	.	.	.	.	.
.	.	4e	4cc	.	.	.	.
1B-	2f	4d	1dd	.	.	.	.
.	.	4e	.	.	.	.	.
.	2f	4f	.	.	.	.	.
.	.	4g	.	.	.	.	.
=67	=67	=67	=67	=67	=67	=67	=67
1F	1f	1a	2cc	0r	0r	0r	0r
.	.	.	1ff	.	.	.	.
2r	1c	1g	.	.	.	.	.
[2c	.	.	2ee	.	.	.	.
=68	=68	=68	=68	=68	=68	=68	=68
2c]	2r	2r	2cc	0r	0r	0r	0r
2B-	1g	1b-	2dd	.	.	.	.
2G	.	.	2ee	.	.	.	.
2A	2f	2a	[2ff	.	.	.	.
=69	=69	=69	=69	=69	=69	=69	=69
1B-	1d	2f	2ff]	0r	0r	0r	0r
.	.	2g	4ee	.	.	.	.
.	.	.	4dd	.	.	.	.
[1A	2e	1a	2cc#	.	.	.	.
.	2f	.	[2dd	.	.	.	.
=70	=70	=70	=70	=70	=70	=70	=70
1A]	1e	1a	2dd]	0r	0r	0r	1r
.	.	.	2cc#	.	.	.	.
1D	1d	1f	2dd	.	.	.	[1a
.	.	.	2ff	.	.	.	.
=71	=71	=71	=71	=71	=71	=71	=71
1F	2c	2f	1ff	0A	0r	0a	1a]
.	2c	2a	.	.	.	.	.
2F	2A	1f	2ff	.	.	.	1cc
2F	2F	.	2cc	.	.	.	.
=72	=72	=72	=72	=72	=72	=72	=72
2C	2G	1e	2ee	1c	0e	2.g	1cc
2C	4c	.	2ee	.	.	.	.
.	4d	.	.	.	.	4f	.
1C	4e	2c	1gg	1c	.	4e	1g
.	4f	.	.	.	.	4d	.
.	[2g	2e	.	.	.	2c	.
=73	=73	=73	=73	=73	=73	=73	=73
1G	2g]	1d	1gg	0G	1g	4d	2b-
.	.	.	.	.	.	4c	.
.	2d	.	.	.	.	4B-	2b-
.	.	.	.	.	.	4A	.
1r	1r	1r	1r	.	1g	2G	2.b-
.	.	.	.	.	.	2g	.
.	.	.	.	.	.	.	4cc
=74	=74	=74	=74	=74	=74	=74	=74
0r	0r	0r	0r	2B-	1d	2.f	1.dd
.	.	.	.	2B-	.	.	.
.	.	.	.	.	.	4e	.
.	.	.	.	2B-	2f	4d	.
.	.	.	.	.	.	4e	.
.	.	.	.	4A	2f	4f	4cc
.	.	.	.	4G	.	4g	4b-
=75	=75	=75	=75	=75	=75	=75	=75
0r	0r	0r	0r	4F	2f	2a	1.cc
.	.	.	.	4G	.	.	.
.	.	.	.	4A	4e	2a	.
.	.	.	.	4B-	4d	.	.
.	.	.	.	2c	2e	2g	.
.	.	.	.	2d	[2d	2f	2b-
=76	=76	=76	=76	=76	=76	=76	=76
1r	2r	1r	0r	1A	2d]	1e	1a
.	1a	.	.	.	2c#	.	.
2r	.	1a	.	1D	[1d	2.d	2.f
[2d	2a	.	.	.	.	.	.
.	.	.	.	.	.	4e	4g
=77	=77	=77	=77	=77	=77	=77	=77
2d]	2.f	2a	1dd	2r	1d]	4f	1a
.	.	.	.	.	.	4g	.
2d	.	2.f	.	1d	.	4a	.
.	4e	.	.	.	.	8g	.
.	.	.	.	.	.	8a	.
2.B-	1d	.	2dd	.	2r	2b-	2r
.	.	4e	.	.	.	.	.
.	.	2d	[2b-	2d	2d	2f	[2dd
4A	.	.	.	.	.	.	.
=78	=78	=78	=78	=78	=78	=78	=78
1G	2r	1g	4b-]	2.B-	2d	2r	2dd]
.	.	.	4a	.	.	.	.
.	2.G	.	4g	.	2.B-	2d	2dd
.	.	.	4a	4A	.	.	.
2r	.	2g	4b-	[1G	.	2d	2.b-
.	4A	.	4cc	.	4A	.	.
[2G	4B-	4G	2dd	.	[2G	[2B-	.
.	4c	4A	.	.	.	.	4a
=79	=79	=79	=79	=79	=79	=79	=79
2G]	2d	4B-	1.gg	1G]	2G]	4B-]	0g
.	.	4c	.	.	.	4A	.
2G	2B-	2d	.	.	2g	1G	.
[1C	1c	2.e	.	2r	2g	.	.
.	.	.	2gg	[2c	[2e	[2g	.
.	.	4f	.	.	.	.	.
=80	=80	=80	=80	=80	=80	=80	=80
1C]	2r	1g	2.ee	2c]	4e]	2g]	2r
.	.	.	.	.	4d	.	.
.	2c	.	.	2c	2c	2e	1cc
.	.	.	4dd	.	.	.	.
[1F	2c	[1a	1cc	2.A	2r	4f	.
.	.	.	.	.	.	4g	.
.	[2A	.	.	.	[2c	4a	2cc
.	.	.	.	4G	.	4b-	.
=81	=81	=81	=81	=81	=81	=81	=81
2F]	4A]	1a]	2r	0F	2c]	2cc	2.a
.	4G	.	.	.	.	.	.
2F	2F	.	1ff	.	2c	1a	.
.	.	.	.	.	.	.	4g
2.D	2A	2r	.	.	2d	.	1f
.	2A	[2d	2ff	.	[2f	2d	.
4C	.	.	.	.	.	.	.
=82	=82	=82	=82	=82	=82	=82	=82
0BB-	4B-	2d]	2.dd	2.B-	2f]	1f	2r
.	4c	.	.	.	.	.	.
.	4d	2B-	.	.	1d	.	1b-
.	4e	.	4cc	4B-	.	.	.
.	2f	2.d	1b-	2B-	.	1f	.
.	2d	.	.	2B-	[2B-	.	2b-
.	.	4c	.	.	.	.	.
=83	=83	=83	=83	=83	=83	=83	=83
2.E-	0e-	2B-	2r	1G	2B-]	2.g	1b-
.	.	2G	2.ee-	.	2B-	.	.
4E-	.	.	.	.	.	4a	.
2E-	.	[1g	.	1G	1B-	2b-	2g
.	.	.	4ee-	.	.	.	.
2E-	.	.	2ee-	.	.	2g	[2gg
=84	=84	=84	=84	=84	=84	=84	=84
1C	2.e-	2g]	2ee-	0c	2c	1g	2gg]
.	.	2g	1cc	.	2.e-	.	2gg
.	4d	.	.	.	.	.	.
1C	4c	[1g	.	.	.	1cc	1ee-
.	4B-	.	.	.	4d	.	.
.	2c	.	[2gg	.	[2c	.	.
=85	=85	=85	=85	=85	=85	=85	=85
0G	0d	1g]	4gg]	0G	2c]	2r	0dd
.	.	.	8ff	.	.	.	.
.	.	.	8ee	.	.	.	.
.	.	.	2dd	.	4B	2.g	.
.	.	.	.	.	4A	.	.
.	.	2d	1gg	.	1B	.	.
.	.	.	.	.	.	8f	.
.	.	.	.	.	.	8e	.
.	.	[2g	.	.	.	2d	.
=86	=86	=86	=86	=86	=86	=86	=86
0C	0c	4g]	0ee	2r	2c	2e	2r
.	.	4f	.	.	.	.	.
.	.	4e	.	2c	2e	2g	2cc
.	.	4d	.	.	.	.	.
.	.	2e	.	1c	1e	1g	1cc
.	.	2c	.	.	.	.	.
=87	=87	=87	=87	=87	=87	=87	=87
1r	1r	1r	1r	2G	2d	2g	2b
.	.	.	.	2c	2e	2g	2cc
2r	2r	2r	2r	2.F	2.f	1cc	2.a
2F	2c	2a	2ff	.	.	.	.
.	.	.	.	4F	4f	.	4a
=88	=88	=88	=88	=88	=88	=88	=88
1F	1c	1a	1ff	1A	2c	2a	0cc
.	.	.	.	.	1c	2f	.
2C	2c	2g	2ee	1c	.	2g	.
2F	2A	2a	[2ff	.	2F	4f	.
.	.	.	.	.	.	4e	.
=89	=89	=89	=89	=89	=89	=89	=89
2.BB-	2.B-	2.f	2ff]	2.B-	0f	1d	1dd
.	.	.	2.dd	.	.	.	.
4BB-	4B-	4f	.	8A	.	.	.
.	.	.	.	8G	.	.	.
1D	2A	4d	.	[1F	.	[1a	[1ff
.	.	4e	4dd	.	.	.	.
.	[2a	4f	2dd	.	.	.	.
.	.	4g	.	.	.	.	.
=90	=90	=90	=90	=90	=90	=90	=90
1F	4a]	4a	0cc	1F]	1f	1a]	1ff]
.	4g	4b-	.	.	.	.	.
.	1f	2a	.	.	.	.	.
1C	.	1g	.	2r	1r	1r	2r
.	2e	.	.	[2c	.	.	[2gg
=91	=91	=91	=91	=91	=91	=91	=91
1G	1d	1g	1dd	2c]	1.g	1r	2gg]
.	.	.	.	2B	.	.	2dd
1r	1r	1r	1r	1c	.	2r	1ee
.	.	.	.	.	2e	[2cc	.
=92	=92	=92	=92	=92	=92	=92	=92
0r	0r	0r	0r	1G	2.g	2cc]	2dd
.	.	.	.	.	.	2b	2.gg
.	.	.	.	.	4f	.	.
.	.	.	.	2.c	4e	2cc	.
.	.	.	.	.	4d	.	4ff
.	.	.	.	.	[2c	2g	4ee
.	.	.	.	4B-	.	.	4dd
=93	=93	=93	=93	=93	=93	=93	=93
1r	1r	1r	0r	4A	2c]	2.a	4cc
.	.	.	.	4G	.	.	4b-
.	.	.	.	1F	2d	.	1a
.	.	.	.	.	.	4g	.
2r	2r	2r	.	.	2c	4f	.
.	.	.	.	.	.	4e	.
[2G	[2d	2g	.	2G	2B-	2d	2g
=94	=94	=94	=94	=94	=94	=94	=94
2G]	2d]	1a	2r	1D	1A	0d	0dd
2F#	2d	.	1dd	.	.	.	.
1G	2d	1b	.	1G	1G	.	.
.	[2g	.	2dd	.	.	.	.
=95	=95	=95	=95	=95	=95	=95	=95
1C	4g]	2.cc	1ee	0r	0r	0r	0r
.	4f	.	.	.	.	.	.
.	4e	.	.	.	.	.	.
.	4d	4b-	.	.	.	.	.
2.F	4c	4a	2ff	.	.	.	.
.	4B-	4g	.	.	.	.	.
.	4A	2f	[2ff	.	.	.	.
4E	4G	.	.	.	.	.	.
=96	=96	=96	=96	=96	=96	=96	=96
4D	2F	2a	4ff]	0r	0r	0r	0r
4C	.	.	4ee	.	.	.	.
1BB-	2.f	1b-	4dd	.	.	.	.
.	.	.	4cc	.	.	.	.
.	.	.	2dd	.	.	.	.
.	4d	.	.	.	.	.	.
2C	2e-	[2a	2cc	.	.	.	.
=97	=97	=97	=97	=97	=97	=97	=97
0D	0d	2a]	1b-	1r	1r	1r	1r
.	.	1g	.	.	.	.	.
.	.	.	1a	2r	2r	2r	2r
.	.	2f#	.	[2D	[2d	[2a	[2dd
=98	=98	=98	=98	=98	=98	=98	=98
0r	0r	0r	0r	2D]	2d]	2a]	2dd]
.	.	.	.	2G	2d	2g	2b-
.	.	.	.	2.F	[1f	2.a	2cc
.	.	.	.	.	.	.	4f
.	.	.	.	4E	.	4g	4g
=99	=99	=99	=99	=99	=99	=99	=99
0r	0r	0r	0r	2D	2f]	2f	4a
.	.	.	.	.	.	.	4b-
.	.	.	.	2C	2g	2e	2cc
.	.	.	.	2F	2a	4f	2cc
.	.	.	.	.	.	4c	.
.	.	.	.	2G	2g	[2e	2b-
=100	=100	=100	=100	=100	=100	=100	=100
1r	1r	1r	1r	1A	1f	2e]	1a
.	.	.	.	.	.	1d	.
2r	2r	2r	2r	1A	1e	.	1a
[2A	[2e	[2a	[2cc#	.	.	2c#	.
=101	=101	=101	=101	=101	=101	=101	=101
2A]	2e]	2a]	2cc#]	0r	0r	0r	0r
2d	2f	2a	2dd	.	.	.	.
2.c	2g	[1cc	[1ee	.	.	.	.
.	2g	.	.	.	.	.	.
4B-	.	.	.	.	.	.	.
=102	=102	=102	=102	=102	=102	=102	=102
2A	1a	2cc]	2ee]	0r	0r	0r	0r
2F	.	2cc	2ff	.	.	.	.
2B-	2d	2b-	2ff	.	.	.	.
2c	[2g	2g	2ee	.	.	.	.
=103	=103	=103	=103	=103	=103	=103	=103
1d	4g]	2b-	1dd	2r	2r	2r	2r
.	4f	.	.	.	.	.	.
.	1f	2a	.	2d	2a	2d	2ff
1D	.	1a	1dd	2d	2.a	2.f	2ff
.	2d	.	.	[2d	.	.	[2ff
.	.	.	.	.	4g	4g	.
=104	=104	=104	=104	=104	=104	=104	=104
0r	0r	0r	1r	4d]	2f	2a	4ff]
.	.	.	.	4c	.	.	4ee
.	.	.	.	2B-	2g	2b-	2dd
.	.	.	2r	2c	2e	2a	2cc
.	.	.	2dd	2d	2f#	2a	2a
=105	=105	=105	=105	=105	=105	=105	=105
2r	2r	2r	2dd	0G	2.g	0g	2.b-
2G	1g	2b-	2.dd	.	.	.	.
.	.	.	.	.	8f	.	4cc
.	.	.	.	.	8e	.	.
2G	.	2b-	.	.	1d	.	1dd
.	.	.	4cc	.	.	.	.
[2G	[2d	[2b-	2b-	.	.	.	.
=106	=106	=106	=106	=106	=106	=106	=106
4G]	2d]	4b-]	2dd	0r	1r	1r	1r
4F	.	4a	.	.	.	.	.
2E	2e	2g	1cc	.	.	.	.
2F	2d	2a	.	.	2r	2r	2r
2G	2d	2g	2b	.	2G	2d	2gg
=107	=107	=107	=107	=107	=107	=107	=107
0C	0c	0g	0cc	2r	4c	4e	2gg
.	.	.	.	.	4d	4d	.
.	.	.	.	2c	4e	4c	2.gg
.	.	.	.	.	4f	4d	.
.	.	.	.	1c	1g	4e	.
.	.	.	.	.	.	4f	4ff
.	.	.	.	.	.	2g	2ee
=108	=108	=108	=108	=108	=108	=108	=108
0r	0r	0r	1r	2c	2e	2c	2gg
.	.	.	.	2A	2a	2cc	1ff
.	.	.	2r	2B-	2g	2b-	.
.	.	.	2cc	2c	2g	2g	2ee
=109	=109	=109	=109	=109	=109	=109	=109
2r	2r	2r	2cc	0F	0f	0a	0ff
2F	2f	2a	2.cc	.	.	.	.
1F	1f	1a	.	.	.	.	.
.	.	.	4b-	.	.	.	.
.	.	.	2a	.	.	.	.
=110	=110	=110	=110	=110	=110	=110	=110
2F	2c	2a	2cc	0r	0r	0r	0r
2D	2d	2f	1b-	.	.	.	.
2E	2c	2g	.	.	.	.	.
2F	2c	2f	2a	.	.	.	.
=111	=111	=111	=111	=111	=111	=111	=111
0BB-	0B-	2.f	4b-	0B-	0f	0b-	0dd
.	.	.	4cc	.	.	.	.
.	.	.	4dd	.	.	.	.
.	.	4e	4ee	.	.	.	.
.	.	2d	[1ff	.	.	.	.
.	.	[2f	.	.	.	.	.
=112	=112	=112	=112	=112	=112	=112	=112
0F	2r	4f]	1ff]	0F	0f	0a	0cc
.	.	4g	.	.	.	.	.
.	4F	4a	.	.	.	.	.
.	4G	4b-	.	.	.	.	.
.	4A	2cc	1ff	.	.	.	.
.	4B-	.	.	.	.	.	.
.	[2c	4c	.	.	.	.	.
.	.	4d	.	.	.	.	.
=113	=113	=113	=113	=113	=113	=113	=113
0C	4c]	4e	0ee	0c	1g	0g	0cc
.	4d	4f	.	.	.	.	.
.	4e	1g	.	.	.	.	.
.	4f	.	.	.	.	.	.
.	[1g	.	.	.	1e	.	.
.	.	[2cc	.	.	.	.	.
=114	=114	=114	=114	=114	=114	=114	=114
0G	2g]	2cc]	0gg	0G	0d	0g	0dd
.	2d	4b-	.	.	.	.	.
.	.	4a	.	.	.	.	.
.	4d	1b-	.	.	.	.	.
.	4c	.	.	.	.	.	.
.	4d	.	.	.	.	.	.
.	4e	.	.	.	.	.	.
=115	=115	=115	=115	=115	=115	=115	=115
0F	1f	0a	0cc	2r	2r	2r	2r
.	.	.	.	2A	2a	2cc	2cc
.	1f	.	.	2F	2a	2cc	2ff
.	.	.	.	2F	2a	2cc	2ff
=116	=116	=116	=116	=116	=116	=116	=116
0r	0r	0r	0r	2c	2g	2cc	2ee
.	.	.	.	2d	2f	2a	2dd
.	.	.	.	1A	1e	[1a	4cc
.	.	.	.	.	.	.	4b-
.	.	.	.	.	.	.	4a
.	.	.	.	.	.	.	4g
=117	=117	=117	=117	=117	=117	=117	=117
1D	2r	2r	2r	1d	1d	1a]	1f
.	2d	2f	2a	.	.	.	.
2BB-	2f	2b-	2dd	1r	1r	1r	1r
2BB-	2f	2b-	2dd	.	.	.	.
=118	=118	=118	=118	=118	=118	=118	=118
2F	2f	2a	2cc	1r	1r	1r	1r
2G	2d	2g	2b-	.	.	.	.
[1D	4d	4f	4a	2r	2r	2r	2r
.	4e	4e	4g	.	.	.	.
.	4f	4d	4f	2d	2f	2a	2dd
.	4g	4e	4e	.	.	.	.
=119	=119	=119	=119	=119	=119	=119	=119
1D]	1a	4f	1d	2d	2f	2a	2.dd
.	.	4g	.	.	.	.	.
.	.	2a	.	2d	2f	2a	.
.	.	.	.	.	.	.	4dd
1r	1r	1r	1r	[1G	2.g	[1b	2dd
.	.	.	.	.	.	.	[2gg
.	.	.	.	.	8f	.	.
.	.	.	.	.	8e	.	.
=120	=120	=120	=120	=120	=120	=120	=120
0r	0r	0r	0r	1G]	2d	1b]	2gg]
.	.	.	.	.	1g	.	2gg
.	.	.	.	[1c	.	1cc	2ee
.	.	.	.	.	2g	.	2ee
=121	=121	=121	=121	=121	=121	=121	=121
0r	0r	0r	0r	2c]	2e	1cc	4gg
.	.	.	.	.	.	.	4ff
.	.	.	.	2c	1e	.	4ee
.	.	.	.	.	.	.	4dd
.	.	.	.	2A	.	2r	4cc
.	.	.	.	.	.	.	4b-
.	.	.	.	2A	[2f	[2cc	2a
=122	=122	=122	=122	=122	=122	=122	=122
0r	0r	0r	0r	1c	4f]	2cc]	1g
.	.	.	.	.	8e	.	.
.	.	.	.	.	8d	.	.
.	.	.	.	.	2e	2cc	.
.	.	.	.	2.F	1f	2a	2cc
.	.	.	.	.	.	2a	[2dd
.	.	.	.	4G	.	.	.
=123	=123	=123	=123	=123	=123	=123	=123
2r	2r	2r	1a	0A	2.e	1a	2dd]
2A	2e	2a	.	.	.	.	4cc#
.	.	.	.	.	4d	.	4b
2A	2e	2a	2ee	.	1e	1a	1cc#
2A	2e	2a	2ee	.	.	.	.
=124	=124	=124	=124	=124	=124	=124	=124
0D	0d	0a	0ff#	2r	2r	2r	2dd
.	.	.	.	2d	2d	2a	2dd
.	.	.	.	2d	2a	2d	2dd
.	.	.	.	2d	2a	2a	2dd
=125	=125	=125	=125	=125	=125	=125	=125
2r	2r	2r	2r	0G	1g	0b	1dd
2G	2d	2g	2gg	.	.	.	.
2G	2d	2g	2gg	.	1g	.	2r
2G	2d	2g	2gg	.	.	.	[2gg
=126	=126	=126	=126	=126	=126	=126	=126
0C	0e	0g	1ee	1.c	2g	1.cc	2gg]
.	.	.	.	.	1e	.	2gg
.	.	.	[1cc	.	.	.	2ee
.	.	.	.	2c	[2c	2cc	2ee
=127	=127	=127	=127	=127	=127	=127	=127
1.F	0f	1.a	2cc]	2A	2c]	4cc	1cc
.	.	.	.	.	.	4b-	.
.	.	.	2cc	2A	2.F	4a	.
.	.	.	.	.	.	4g	.
.	.	.	2cc	1c	.	1a	1cc
.	.	.	.	.	4G	.	.
2F	.	2a	[2a	.	[2A	.	.
=128	=128	=128	=128	=128	=128	=128	=128
2D	1F	2f	2a]	0F	2A]	2a	0ff
2D	.	2f	1b-	.	2d	2.f	.
1F	2r	1f	.	.	1c	.	.
.	.	.	.	.	.	4g	.
.	2c	.	2a	.	.	2a	.
=129	=129	=129	=129	=129	=129	=129	=129
0BB-	2d	2.f	2b-	0B-	2.B-	1d	0ff
.	2.f	.	2dd	.	.	.	.
.	.	4e	.	.	4c	.	.
.	.	1d	2dd	.	2d	[1b-	.
.	4e	.	.	.	.	.	.
.	4d	.	2dd	.	[2B-	.	.
.	4c	.	.	.	.	.	.
=130	=130	=130	=130	=130	=130	=130	=130
0E-	1.B-	1g	1ee-	0G	2B-]	1b-]	0gg
.	.	.	.	.	1G	.	.
.	.	[1e-	1b-	.	.	[1g	.
.	2G	.	.	.	[2g	.	.
=131	=131	=131	=131	=131	=131	=131	=131
0C	1g	2e-]	0cc	0c	4g]	1g]	0ee-
.	.	.	.	.	4f	.	.
.	.	1c	.	.	4e-	.	.
.	.	.	.	.	4d	.	.
.	2.G	.	.	.	1c	1g	.
.	.	[2G	.	.	.	.	.
.	4A	.	.	.	.	.	.
=132	=132	=132	=132	=132	=132	=132	=132
1G	4B-	4G]	2b-	0G	[0d	2.g	1dd
.	4c	4A	.	.	.	.	.
.	2.d	4B-	4g	.	.	.	.
.	.	4c	4a	.	.	8f	.
.	.	.	.	.	.	8e	.
1G	.	2d	4b-	.	.	2d	1g
.	4c	.	4cc	.	.	.	.
.	2B-	[2d	4dd	.	.	[2g	.
.	.	.	4ee	.	.	.	.
=133	=133	=133	=133	=133	=133	=133	=133
0D	0A	4d]	2ff	0d	1d]	2g]	1a
.	.	4e	.	.	.	.	.
.	.	4f#	2.dd	.	.	4f#	.
.	.	4g	.	.	.	4e	.
.	.	2a	.	.	1d	1f#	1dd
.	.	.	4cc	.	.	.	.
.	.	2d	2a	.	.	.	.
=134	=134	=134	=134	=134	=134	=134	=134
0G	0G	0d	0b	0G	0B	0g	0dd
==	==	==	==	==	==	==	==
*-	*-	*-	*-	*-	*-	*-	*-
!!!CDT: 1525/^1526/-1594/2/2
!!!OCY: Italia
!!!AGN: Mass (Parody)
!!!AST: renaissance, vocal
!!!ASW: Motet 1572 (Palestrina)
!!!PWK: Masses, Book 8vce
!!!RNB: Cadence finals: D,Bb
!!!YOR: Le Opere Complete, v. 30, p. 163
!!!YOO: Rome, Italy: Fratelli Scalera
!!!END: 1992//
!!!EED: John Miller
!!!YEC: Copyright 2000, John Miller
!!!YEN: United States of America
!!!YEM: Rights to all derivative electronic formats reserved.
!!!YEM: Refer to licensing agreement for further details.
!!!YEM: This file must be accompanied by the licensing agreement.
!!!YEM: A copy of the licensing agreement may be found at http://www.music-cog.ohio-state.edu/HumdrumDatabases/Palestrina/license.txt
!!!EMD: converted to Humdrum by Bret Aarden
